X:1
T:Boys Of The Lough (reel), The
M:4/4
L:1/8
R: reel
O:Trad. (9.9.2014/NS)
K:Dmaj
dB|:"D"AF F2 A2 AB|"G"defd "A"efdB|"D"AF F2 dFAF|"A"E2ED EFGB|
"D"AF F2 A2 AB|"G"defd "A"efdB|"D"AF F2 dFAF| "A"E2EF "D"D2 :|
fg|:"D"a2 ag "D/F#" f2fe|"G"defd "A"efdB|"D"AF F2 dFAF|"A"E2EF E2fg|
"D"a2ag "D/F#"f2fe|"G"defd "A"efdB|"Hm"AF F2 "G"dFAF| "A"E2EF "D"D2 :|
